icons/desktop/16/svg/page-portrait-16.svg

<svg width="16" height="16" viewBox="0 0 16 16" fill="none" xmlns="http://www.w3.org/2000/svg">
<path fill-rule="evenodd" clip-rule="evenodd" d="M8.80273 0.015625C9.31366 0.029623 9.80013 0.23868 10.1621 0.600586L13.4072 3.8457C13.7822 4.21966 13.9921 4.72788 13.9922 5.25781L14 13.042C14 14.425 12.961 15.6004 11.584 15.7744C10.403 15.9244 9.19698 16 8 16C6.795 16 5.57874 15.9235 4.38574 15.7715C3.02484 15.5984 2 14.4249 2 13.042V2.96973C2.00015 1.60392 3.11392 0.387851 4.46973 0.21875C5.63273 0.07375 6.821 0 8 0C8.16795 0 8.49082 0.00762735 8.80273 0.015625ZM8 1.5C6.85413 1.5 5.69924 1.57281 4.56836 1.71777C3.95336 1.79677 3.5 2.33701 3.5 2.95801V13.041C3.50001 13.67 3.9622 14.2033 4.5752 14.2812C6.841 14.5712 9.17483 14.5702 11.4316 14.2812C12.0466 14.2032 12.5 13.662 12.5 13.042V5.5H9.5C8.948 5.5 8.5 5.052 8.5 4.5V1.5127C8.335 1.5087 8.157 1.5 8 1.5Z" fill="black"/>
</svg>

<!-- This Source Code Form is subject to the terms of the Mozilla Public
   - License, v. 2.0. If a copy of the MPL was not distributed with this
   - file, You can obtain one at http://mozilla.org/MPL/2.0/. -->
<svg xmlns="http://www.w3.org/2000/svg" width="16" height="16" fill="context-fill" fill-opacity="context-fill-opacity" viewBox="0 0 16 16">
    <path fill-rule="evenodd" d="M8.803.016a2 2 0 0 1 1.36.585l3.244 3.245c.375.374.585.882.585 1.412L14 13.042a2.764 2.764 0 0 1-2.416 2.732 28.6 28.6 0 0 1-7.198-.002A2.75 2.75 0 0 1 2 13.042V2.97C2 1.604 3.114.388 4.47.219A29 29 0 0 1 8 0c.168 0 .49.008.803.016M8 1.5c-1.146 0-2.3.073-3.432.218-.615.079-1.068.619-1.068 1.24v10.083c0 .629.462 1.162 1.075 1.24 2.266.29 4.6.29 6.857 0 .615-.078 1.068-.619 1.068-1.239V5.5h-3a1 1 0 0 1-1-1V1.513C8.335 1.509 8.157 1.5 8 1.5" clip-rule="evenodd" />
</svg>
